X: 1
T: I'm a Freeborn Man of the Irish People   [A]
C:
O: Ireland
R: triple march
S: https://www.irish-folk-songs.com/the-travelling-people-lyrics-and-guitar-chords.html
Z: 2021 John Chambers <jc:trillian.mit.edu>
M: 3/4
L: 1/8
K: A
[| z2 A,<C EA | E2 C>A, DE | D2 B,2- B,2 | CD EE GA | Bc BG A2 | 
E2 GA Bc | B2 AG AE | F2 EC DF | EE DB, =G,2 | A,2 z4 |]
